.vuescan/CanoScan LiDE 400.it8
IT8.7/2
ORIGINATOR "LaserSoft Imaging AG"
DESCRIPTOR "For Fuji Crystal Archive Supreme, L* a* b* (light D50, viewing angle 2)"
MANUFACTURER "LaserSoft Imaging AG - http://www.silverfast.com"
CREATED "November 20, 2009"
PROD_DATE " 2009:11"
SERIAL "R091119 Batch Average Data"
MATERIAL "For Fuji Crystal Archive Supreme"
NUMBER_OF_FIELDS 7
BEGIN_DATA_FORMAT
SAMPLE_ID   XYZ_X   XYZ_Y   XYZ_Z          LAB_L   LAB_A   LAB_B
END_DATA_FORMAT
NUMBER_OF_SETS 288
BEGIN_DATA
A1           3.13    2.58    1.86          18.27   11.85    2.59
A2           3.84    2.48    1.40          17.85   24.87    6.91
A3           5.76    3.45    1.67          21.78   32.67   10.59
A4          11.78    6.32    2.75          30.21   48.91   15.30
A5          11.82   10.36    7.69          38.48   13.56    3.24
A6          14.44   10.68    6.80          39.04   28.34    7.86
A7          17.39   11.03    6.13          39.63   42.74   11.84
A8          21.77   11.30    5.06          40.08   62.76   17.81
A9          39.87   39.24   29.97          68.92    6.48    3.72
A10         41.54   39.15   28.88          68.86   11.89    5.36
A11         44.73   39.60   27.60          69.18   19.92    8.02
A12         44.59   34.84   21.83          65.62   34.85   12.33
A13         79.80   82.49   70.19          92.79    0.55   -1.94
A14         79.54   82.01   70.16          92.58    0.94   -2.28
A15         80.33   83.07   70.85          93.05    0.48   -2.09
A16         79.99   82.52   70.64          92.81    0.86   -2.33
A17         79.69   82.19   70.39          92.66    0.90   -2.34
A18         80.22   82.95   70.73          93.00    0.50   -2.07
A19         79.95   82.46   70.60          92.78    0.89   -2.33
A20          5.78    3.92    1.66          23.42   25.86   13.49
A21          4.40    3.37    1.77          21.47   17.16    9.04
A22          3.30    2.88    2.02          19.58    9.00    3.31
B1           3.04    2.63    1.35          18.50    9.20    8.71
B2           3.43    2.47    0.80          17.79   18.76   15.51
B3           4.74    3.13    0.83          20.56   25.53   19.83
B4           8.49    4.70    0.83          25.85   42.07   28.94
B5          12.08   10.49    5.40          38.71   14.35   13.73
B6          14.19   10.84    3.58          39.30   25.61   25.10
B7          16.75   10.90    2.13          39.40   40.22   36.42
B8          22.38   12.24    1.22          41.60   59.01   50.21
B9          39.49   39.24   27.89          68.92    5.28    7.10
B10         41.05   38.80   25.07          68.61   11.46   11.43
B11         44.56   39.75   22.13          69.29   18.97   18.08
B12         43.12   34.13   13.72          65.07   32.97   29.79
B13         72.65   77.86   69.61          90.72   -4.99   -4.99
B14         73.54   71.70   67.67          87.83    9.33   -8.20
B15         79.25   82.13   67.36          92.63    0.16    0.36
B16         67.64   69.18   65.25          86.59    2.08   -8.07
B17         73.18   71.55   65.38          87.75    8.91   -6.21
B18         72.00   77.44   66.70          90.52   -5.50   -2.66
B19         68.25   69.73   67.34          86.86    2.26   -9.57
B20         27.17   26.06   18.47          58.09    8.45    6.29
B21         24.48   22.96   15.90          55.03   10.47    6.94
B22         20.26   18.27   12.44          49.82   13.55    7.05
C1           4.03    3.89    2.00          23.28    4.13    9.88
C2           4.58    4.16    1.17          24.21    7.82   20.91
C3           5.65    4.82    1.07          26.23   12.21   25.85
C4           8.38    6.31    1.13          30.17   22.47   31.81
C5          22.72   21.59   10.02          53.59    8.89   20.94
C6          25.41   22.49    5.19          54.55   16.53   42.08
C7          27.30   22.27    2.26          54.31   25.28   60.93
C8          32.02   21.99    1.88          54.02   44.49   64.00
C9          45.86   46.37   30.47          73.78    3.32   11.31
C10         47.83   47.00   25.66          74.19    7.10   19.99
C11         49.97   46.91   20.83          74.13   13.15   29.00
C12         48.62   42.10    9.76          70.94   23.24   51.72
C13         62.58   70.43   67.92          87.21  -11.94   -9.50
C14         65.99   59.41   63.14          81.52   20.31  -14.81
C15         77.08   80.73   54.68          92.01   -1.48   11.84
C16         52.41   54.27   50.81          78.62    0.25   -7.02
C17         63.88   58.76   50.23          81.16   17.11   -1.99
C18         58.76   67.69   51.16          85.85  -15.09    5.06
C19         54.17   54.67   62.92          78.85    3.75  -19.19
C20         27.74   25.87   15.18          57.91   11.52   13.69
C21         24.08   22.24   11.39          54.28   11.97   17.82
C22         24.78   22.89    9.86          54.96   12.03   23.85
D1           3.81    3.98    1.99          23.61   -0.42   10.48
D2           4.01    4.23    1.33          24.43   -1.09   19.20
D3           4.71    4.89    1.17          26.43   -0.14   24.77
D4           6.39    6.78    1.33          31.30   -1.51   30.98
D5          25.41   26.65   12.74          58.65   -1.18   21.41
D6          26.16   27.61    7.49          59.53   -1.86   40.34
D7          25.19   26.85    3.39          58.84   -2.92   60.06
D8          22.63   24.23    2.52          56.31   -3.24   62.12
D9          52.73   55.04   35.04          79.06   -0.85   13.56
D10         52.57   55.28   29.21          79.20   -1.88   22.67
D11         53.81   56.26   23.56          79.76   -1.06   33.40
D12         54.03   57.62   10.74          80.52   -3.81   65.06
D13         55.41   64.82   66.42          84.39  -17.00  -12.97
D14         59.28   49.29   58.78          75.63   30.24  -20.65
D15         74.16   78.02   42.41          90.79   -2.17   23.91
D16         40.41   41.64   38.72          70.62    0.83   -6.08
D17         55.41   47.80   37.29          74.70   24.77    2.89
D18         48.09   59.03   37.73          81.31  -22.87   13.68
D19         42.92   42.13   57.71          70.96    6.96  -27.60
D20         31.52   32.13   14.33          63.45    2.00   25.40
D21         26.76   27.10   11.77          59.07    2.63   24.92
D22         12.04   13.39    3.93          43.34   -5.87   29.81
E1           3.54    4.01    1.97          23.71   -5.02   10.88
E2           3.38    4.21    1.35          24.33  -10.23   18.72
E3           3.75    5.02    1.27          26.79  -15.02   24.10
E4           4.77    7.08    1.46          31.99  -23.25   30.53
E5          12.05   13.86    6.87          44.03   -8.77   16.16
E6          11.17   14.20    4.52          44.51  -17.07   28.40
E7          10.30   14.24    2.41          44.57  -23.85   42.89
E8          10.66   15.88    2.17          46.81  -30.74   48.84
E9          36.20   38.85   25.27          68.64   -4.14   11.12
E10         34.76   38.99   21.87          68.75   -9.39   17.64
E11         33.24   38.76   18.52          68.58  -13.96   24.28
E12         30.55   40.93    9.94          70.13  -30.33   49.70
E13         47.48   58.38   63.81          80.95  -23.03  -16.43
E14         52.95   40.59   54.01          69.89   39.27  -25.58
E15         71.96   75.71   33.00          89.72   -2.13   34.91
E16         30.22   31.30   28.71          62.76    0.18   -4.89
E17         48.36   39.08   27.86          68.81   31.72    6.96
E18         37.58   49.62   26.50          75.84  -30.58   21.36
E19         32.63   31.22   52.12          62.70    9.26  -35.94
E20         26.23   31.54   20.56          62.96  -16.32   10.27
E21         24.26   29.02   16.26          60.79  -15.36   16.03
E22          7.14    9.93    3.13          37.71  -21.53   25.41
F1           1.27    1.65    1.11          13.55   -9.22    3.32
F2           1.37    2.06    1.09          15.78  -16.01    7.51
F3           1.93    3.03    1.52          20.17  -20.15    9.55
F4           3.80    6.29    3.46          30.13  -28.75   10.04
F5           6.40    8.05    5.49          34.09  -13.51    5.33
F6           5.52    8.55    4.66          35.10  -27.56   11.38
F7           5.86    9.86    5.14          37.58  -34.37   13.12
F8           8.31   14.68    7.71          45.20  -42.96   14.75
F9          35.57   38.69   29.80          68.52   -5.72    3.30
F10         34.52   39.34   29.13          68.99  -11.30    5.18
F11         32.70   39.38   28.21          69.03  -17.79    6.74
F12         29.04   41.73   24.59          70.68  -38.45   15.86
F13         38.70   50.57   58.09          76.42  -29.51  -18.59
F14         47.13   33.12   49.25          64.26   47.93  -30.02
F15         70.05   73.35   25.14          88.61   -1.42   45.79
F16         21.48   22.28   20.82          54.32    0.00   -5.15
F17         41.64   31.15   20.16          62.63   39.04   10.54
F18         27.81   39.99   17.08          69.46  -37.99   29.03
F19         24.17   22.07   46.15          54.10   13.11  -43.93
F20          3.84    4.56    3.00          25.43   -7.90    5.15
F21          3.19    3.88    2.23          23.27   -8.74    7.73
F22          2.92    3.38    2.77          21.51   -5.90    0.16
G1           2.16    2.76    2.46          19.04  -10.18   -1.64
G2           2.24    3.31    3.05          21.25  -17.96   -2.36
G3           3.29    4.96    4.68          26.61  -21.52   -3.36
G4           5.79    8.89    8.62          35.77  -27.41   -4.95
G5           8.58   10.77    9.35          39.20  -14.73   -1.60
G6           7.73   11.38   10.37          40.21  -26.71   -3.25
G7           8.33   13.05   12.72          42.84  -32.56   -5.79
G8           9.29   14.75   14.88          45.30  -35.01   -7.32
G9          35.93   39.06   32.25          68.80   -5.66   -0.04
G10         33.75   39.33   33.24          68.99  -13.92   -1.18
G11         33.31   41.29   34.97          70.38  -21.46   -1.30
G12         26.88   39.82   35.08          69.34  -41.19   -3.27
G13         31.06   43.50   51.11          71.89  -36.06  -18.97
G14         41.05   26.07   43.85          58.10   56.78  -34.24
G15         67.55   70.26   18.63          87.12   -0.40   56.02
G16         15.19   15.88   14.77          46.83   -0.72   -4.40
G17         35.58   24.41   13.71          56.50   46.16   15.04
G18         20.32   31.85   10.19          63.22  -43.88   36.98
G19         17.13   14.65   40.04          45.15   17.54  -51.74
G20          6.90   10.37   11.94          38.49  -27.23  -11.07
G21          7.53    4.07   11.23          23.91   41.73  -34.06
G22         12.33   13.28    1.85          43.18   -3.21   45.68
H1           2.36    2.78    3.23          19.14   -6.28   -7.32
H2           2.23    2.88    4.45          19.56  -10.91  -14.22
H3           3.19    4.18    6.74          24.26  -13.05  -17.35
H4           5.92    7.99   12.80          33.96  -18.01  -21.35
H5           9.19   10.67   11.27          39.01   -8.72   -8.16
H6           8.67   11.35   15.23          40.16  -18.06  -17.03
H7           9.07   12.51   19.61          42.02  -22.65  -23.84
H8          10.81   15.00   24.57          45.63  -24.58  -27.30
H9          35.75   38.81   35.07          68.62   -5.50   -4.48
H10         34.46   38.65   38.71          68.49   -9.36   -9.73
H11         34.13   39.73   44.66          69.28  -13.85  -15.96
H12         31.83   41.82   58.43          70.74  -28.32  -28.71
H13         26.21   38.61   46.65          68.47  -40.15  -19.76
H14         36.36   21.17   39.45          53.14   63.24  -37.19
H15         65.03   66.95   12.98          85.48    1.11   66.99
H16          9.81   10.16    9.30          38.13    0.11   -3.26
H17         30.37   19.11    8.77          50.82   52.20   20.47
H18         15.57   25.96    5.76          58.00  -46.64   45.25
H19         12.62   10.07   35.32          37.97   21.23  -57.68
H20          3.10    4.52    5.08          25.33  -19.20   -7.70
H21          4.33    2.64    5.83          18.53   28.93  -23.16
H22          6.25    6.82    1.34          31.38   -3.35   31.03
I1           4.01    4.13    5.42          24.08    0.41  -11.59
I2           4.11    4.17    8.38          24.24    1.31  -23.95
I3           4.07    4.19   11.35          24.28    0.37  -33.77
I4           7.93    7.83   26.97          33.62    3.56  -52.22
I5          13.27   13.71   14.37          43.81    0.36   -8.57
I6          13.55   14.28   18.63          44.63   -1.37  -17.25
I7          14.05   14.58   23.51          45.05   -0.02  -26.35
I8          13.67   13.68   39.29          43.77    3.09  -53.14
I9          37.56   38.97   34.90          68.73   -0.01   -4.06
I10         37.72   38.81   38.48          68.61    1.00   -9.23
I11         37.34   38.45   41.90          68.35    0.91  -14.14
I12         37.95   38.85   56.41          68.65    1.58  -30.25
I13         22.45   34.63   43.00          65.46  -43.46  -20.51
I14         32.99   17.89   36.16          49.36   68.00  -39.23
I15         63.43   64.44    9.40          84.19    3.01   75.80
I16          5.88    6.10    5.51          29.66   -0.01   -2.41
I17         26.38   15.47    5.00          46.28   56.18   28.79
I18         12.69   22.10    3.80          54.14  -48.00   49.26
I19          9.41    6.97   31.28          31.75   24.42  -62.43
I20          1.34    1.81    1.83          14.47  -11.11   -3.71
I21          1.89    1.44    2.30          12.22   13.30  -11.93
I22          2.44    2.66    0.98          18.64   -2.49   14.11
J1           1.90    1.57    2.69          13.05    9.78  -13.83
J2           2.16    1.58    4.76          13.10   15.59  -27.13
J3           2.53    1.64    7.45          13.45   21.66  -38.95
J4           5.99    3.87   25.39          23.23   29.00  -67.39
J5          10.70   10.54   11.66          38.80    4.06   -9.69
J6          11.57   10.60   14.90          38.91    9.93  -18.38
J7          12.33   10.64   18.98          38.96   15.05  -27.79
J8          14.13   10.18   35.02          38.16   30.19  -56.94
J9          38.40   39.12   35.13          68.84    2.20   -4.19
J10         38.65   38.63   38.11          68.48    4.55   -8.96
J11         39.91   38.94   41.71          68.71    7.52  -13.27
J12         42.27   38.74   55.62          68.56   15.36  -29.58
J13         19.93   31.82   40.34          63.20  -45.74  -21.01
J14         29.62   14.98   32.60          45.61   71.85  -40.54
J15         62.46   62.57    7.25          83.21    5.00   82.15
J16          3.12    3.26    2.68          21.06   -0.39    0.07
J17         22.78   12.41    2.59          41.86   59.72   36.68
J18         11.05   19.75    2.87          51.55  -48.28   51.16
J19          7.29    5.02   27.93          26.80   26.94  -65.60
J20          5.91    3.44    0.76          21.73   34.51   23.17
J21          5.19    9.38    1.74          36.70  -38.30   35.57
J22          2.66    1.62   10.94          13.37   24.49  -51.34
K1           4.72    3.89    4.68          23.29   13.55   -9.11
K2           5.93    3.83    6.91          23.08   28.89  -20.10
K3           7.26    4.04    9.29          23.81   39.51  -27.94
K4          14.40    7.05   20.52          31.91   58.77  -43.17
K5          14.83   13.61   14.07          43.67   10.70   -8.03
K6          16.96   13.78   16.93          43.91   21.88  -14.65
K7          19.26   13.95   20.75          44.15   33.00  -22.53
K8          25.28   13.53   33.41          43.54   63.37  -45.31
K9          39.83   39.19   35.29          68.89    6.50   -4.34
K10         41.46   38.91   37.86          68.68   12.41   -8.26
K11         43.77   38.78   41.37          68.59   19.70  -13.04
K12         51.58   39.25   53.27          68.93   39.83  -26.43
K13         18.46   30.11   38.92          61.75  -46.95  -21.64
K14         26.72   12.73   29.45          42.34   74.51  -41.28
K15         60.57   60.19    5.74          81.94    6.08   86.60
K16          1.31    1.35    1.18          11.58    0.54   -1.02
K17         19.55    9.99    1.36          37.82   61.75   41.89
K18          9.62   17.59    2.32          49.00  -48.26   51.24
K19          5.55    3.46   24.25          21.78   30.22  -67.85
K20          3.41    2.20    0.74          16.50   24.09   14.48
K21          3.38    5.76    1.41          28.80  -29.49   25.71
K22          1.61    1.11    5.66           9.86   16.26  -37.28
L1           3.17    2.45    2.29          17.70   14.91   -2.42
L2           4.13    2.65    2.83          18.60   25.78   -5.31
L3           5.82    3.45    3.68          21.74   33.40   -5.85
L4          11.56    6.13    7.02          29.74   49.42   -9.10
L5          11.98   10.21    9.14          38.21   15.88   -2.59
L6          14.70   10.53   10.26          38.77   31.05   -5.39
L7          17.77   10.70   10.82          39.07   47.18   -6.66
L8          24.09   12.30   13.20          41.69   66.27   -9.10
L9          40.13   39.25   32.25          68.93    7.27    0.19
L10         42.31   39.23   32.87          68.92   13.94   -0.75
L11         44.83   39.18   33.46          68.88   21.53   -1.70
L12         46.09   34.80   33.66          65.59   39.29   -7.67
L13         17.04   28.40   37.39          60.25  -48.07  -22.16
L14         25.55   11.87   27.99          41.01   75.45  -41.20
L15         58.52   58.00    4.72          80.74    6.39   89.71
L16          0.68    0.69    0.63           6.24    0.47   -1.07
L17         17.93    9.01    0.86          36.01   61.25   46.03
L18          8.72   16.57    2.28          47.71  -50.16   49.39
L19          5.03    2.87   22.67          19.51   33.74  -68.79
L20          1.50    1.19    0.72          10.50   10.55    4.43
L21          1.49    2.32    1.02          17.09  -18.19   10.76
L22          0.99    0.90    2.21           8.15    4.58  -18.17
GS0         80.04   82.78   70.59          92.92    0.47   -2.08
GS1         69.68   71.40   66.74          87.67    1.84   -7.60
GS2         59.95   61.96   58.63          82.89    0.53   -7.97
GS3         50.26   52.08   48.37          77.33    0.15   -6.48
GS4         42.04   43.25   39.74          71.73    1.03   -5.52
GS5         36.51   37.79   34.61          67.86    0.30   -5.12
GS6         31.33   32.54   29.88          63.78   -0.13   -5.00
GS7         26.82   27.95   25.24          59.84   -0.53   -3.99
GS8         22.85   23.75   22.14          55.84   -0.20   -5.14
GS9         19.67   20.44   18.88          52.33   -0.12   -4.54
GS10        16.87   17.52   16.19          48.91   -0.11   -4.33
GS11        14.49   15.04   13.94          45.69   -0.05   -4.20
GS12        12.28   12.69   12.00          42.30    0.28   -4.68
GS13        10.20   10.50    9.92          38.73    0.56   -4.34
GS14         8.61    8.91    8.24          35.81    0.18   -3.48
GS15         7.00    7.21    6.60          32.27    0.50   -2.92
GS16         5.52    5.70    4.98          28.63    0.37   -1.51
GS17         4.29    4.48    3.87          25.19   -0.28   -1.11
GS18         3.28    3.44    2.92          21.74   -0.62   -0.58
GS19         2.55    2.67    2.18          18.68   -0.51    0.25
GS20         1.77    1.82    1.54          14.50    0.38   -0.45
GS21         1.22    1.25    1.08          10.91    0.63   -0.72
GS22         0.85    0.89    0.82           8.02   -0.15   -1.58
GS23         0.68    0.69    0.62           6.24    0.56   -0.94
END_DATA